X:38
%%etbk:tnset id:308,pos:1,rep:3x,ant:
%%etbk:wsite http://www.thesession.org/tunes/display/269
%%etbk:pldat 2016-07-12T16:51,2016-07-09T13:50,2015-07-22T17:22,2014-12-15T16:44,2014-05-17T15:21,2014-04-28T18:40,2014-03-18T17:23,2014-02-10T18:01,2013-11-26T16:42,2013-11-23T15:20,2013-11-04T18:03,2013-08-27T18:20,2013-05-22T16:57
T: Maid I Ne'er Forgot, The
Z: Piano Box Version by Martin Fleischmann
H: Created 2013-02-19 /  Last Modified 2013-02-19
M: 4/4
L: 1/8
R: reel
K: Emin
|:!1!E!2!E!1!E!2!F !3!GFG!4!A | !2!BBA!4!d dBA!3!=c | !2!B!1!EEF !3!G!4!A!2!B^c | !4!d2!5!e!3!^c !4!d!2!B!1!A!2!F|
!1!EEEF !3!GFG!4!A | !2!BBAd !4!dBA!3!=c | !2!B!1!EEF G!4!A!2!B^c| !4!dB!1!A!2!F !2!F!1!EE2:||
|:!2!B3!4!d !2!eeef | !4!ge!5!af !4!gfe!1!d | !2!B2!1!EF G!4!A!2!B^c | !4!dB!1!A!3!G !2!FGAF |
!1!E2!3!BE !5!dE!3!BE | !2!BBAd !4!dBA!3!=c | !2!B!1!EEF G!4!A!2!B^c | !4!dB!1!A!2!F !2!F!1!EE2:||


